svgs/scannerate.svg

<svg xmlns="http://www.w3.org/2000/svg" viewBox="0 0 192 192"><path d="m145.029 167.194-9.275-8.994-4.892 1.359c-11.017 3.059-19.314.747-27.462-7.654l-6.043-6.23h-9.531c-10.289 0-14.616-2.258-14.616-7.628 0-2.648 4.149-7.628 6.356-7.628.791 0 1.272-7.204 1.272-19.07V92.28h-3.814c-2.098 0-3.814.572-3.814 1.271 0 2.207-4.979 6.357-7.628 6.357-4.647 0-7.628-4.472-7.628-11.442 0-4.662.678-7.035 2.542-8.9 2.374-2.373 4.238-2.542 27.97-2.542 23.731 0 25.596.169 27.969 2.542 1.864 1.865 2.542 4.238 2.542 8.9 0 6.97-2.981 11.442-7.627 11.442-2.649 0-7.628-4.15-7.628-6.357 0-.699-1.717-1.271-3.814-1.271h-3.814l.055 18.752c.052 17.489.174 18.421 1.807 13.841 4.867-13.653 21.359-20.948 34.729-15.363 13.063 5.457 19.941 20.433 15.385 33.502-1.388 3.98-1.216 4.282 7.628 13.403 9.613 9.914 10.766 12.968 6.505 17.229-4.257 4.257-7.316 3.108-17.174-6.45Zm-14.512-25.235c2.537-2.536 3.716-4.989 3.716-7.726 0-5.469-5.972-11.442-11.442-11.442-5.469 0-11.441 5.973-11.441 11.442 0 2.737 1.179 5.19 3.716 7.726 2.536 2.536 4.989 3.716 7.725 3.716 2.737 0 5.19-1.18 7.726-3.716Zm-89.053 24.587c-5.81-2.52-8.692-5.242-11.615-10.967-2.259-4.427-2.407-8.323-2.407-63.299 0-54.977.148-58.873 2.407-63.3C35.932 17.062 39.765 16 76.679 16h30.249l21.281 21.308 21.28 21.309v20.009c0 18.315-.215 20.226-2.542 22.553-1.399 1.398-3.687 2.542-5.086 2.542-1.398 0-3.686-1.144-5.085-2.542-2.248-2.248-2.543-4.238-2.543-17.163v-14.62h-13.47c-21.463 0-24.669-3.207-24.669-24.669V31.256H71.938c-22.46 0-24.333.178-26.697 2.543-2.466 2.465-2.543 4.237-2.543 58.481 0 54.243.077 56.015 2.543 58.481 2.343 2.343 4.237 2.542 24.155 2.542 19.917 0 21.812.2 24.155 2.543 1.398 1.398 2.543 3.687 2.543 5.085 0 1.399-1.145 3.687-2.543 5.085-2.356 2.356-4.201 2.539-25.109 2.493-17.204-.038-23.614-.504-26.978-1.963Zm81.327-112.777c0-.204-2.574-2.898-5.721-5.986l-5.72-5.615V54.14h5.72c3.147 0 5.721-.167 5.721-.371Z"/></svg>

<svg
    xmlns="http://www.w3.org/2000/svg"
    viewBox="0 0 192 192"
    id="vector">
    <path
        id="path"
        d="M 145.029 167.194 L 135.754 158.2 L 130.862 159.559 C 119.845 162.618 111.548 160.306 103.4 151.905 L 97.357 145.675 L 87.826 145.675 C 77.537 145.675 73.21 143.417 73.21 138.047 C 73.21 135.399 77.359 130.419 79.566 130.419 C 80.357 130.419 80.838 123.215 80.838 111.349 L 80.838 92.28 L 77.024 92.28 C 74.926 92.28 73.21 92.852 73.21 93.551 C 73.21 95.758 68.231 99.908 65.582 99.908 C 60.935 99.908 57.954 95.436 57.954 88.466 C 57.954 83.804 58.632 81.431 60.496 79.566 C 62.87 77.193 64.734 77.024 88.466 77.024 C 112.197 77.024 114.062 77.193 116.435 79.566 C 118.299 81.431 118.977 83.804 118.977 88.466 C 118.977 95.436 115.996 99.908 111.35 99.908 C 108.701 99.908 103.722 95.758 103.722 93.551 C 103.722 92.852 102.005 92.28 99.908 92.28 L 96.094 92.28 L 96.149 111.032 C 96.201 128.521 96.323 129.453 97.956 124.873 C 102.823 111.22 119.315 103.925 132.685 109.51 C 145.748 114.967 152.626 129.943 148.07 143.012 C 146.682 146.992 146.854 147.294 155.698 156.415 C 165.311 166.329 166.464 169.383 162.203 173.644 C 157.946 177.901 154.887 176.752 145.029 167.194 Z M 130.517 141.959 C 133.054 139.423 134.233 136.97 134.233 134.233 C 134.233 128.764 128.261 122.791 122.791 122.791 C 117.322 122.791 111.35 128.764 111.35 134.233 C 111.35 136.97 112.529 139.423 115.066 141.959 C 117.602 144.495 120.055 145.675 122.791 145.675 C 125.528 145.675 127.981 144.495 130.517 141.959 Z M 41.464 166.546 C 35.654 164.026 32.772 161.304 29.849 155.579 C 27.59 151.152 27.442 147.256 27.442 92.28 C 27.442 37.303 27.59 33.407 29.849 28.98 C 35.932 17.062 39.765 16 76.679 16 L 106.928 16 L 128.209 37.308 L 149.489 58.617 L 149.489 78.626 C 149.489 96.941 149.274 98.852 146.947 101.179 C 145.548 102.577 143.26 103.721 141.861 103.721 C 140.463 103.721 138.175 102.577 136.776 101.179 C 134.528 98.931 134.233 96.941 134.233 84.016 L 134.233 69.396 L 120.763 69.396 C 99.3 69.396 96.094 66.189 96.094 44.727 L 96.094 31.256 L 71.938 31.256 C 49.478 31.256 47.605 31.434 45.241 33.799 C 42.775 36.264 42.698 38.036 42.698 92.28 C 42.698 146.523 42.775 148.295 45.241 150.761 C 47.584 153.104 49.478 153.303 69.396 153.303 C 89.313 153.303 91.208 153.503 93.551 155.846 C 94.949 157.244 96.094 159.533 96.094 160.931 C 96.094 162.33 94.949 164.618 93.551 166.016 C 91.195 168.372 89.35 168.555 68.442 168.509 C 51.238 168.471 44.828 168.005 41.464 166.546 Z M 122.791 53.769 C 122.791 53.565 120.217 50.871 117.07 47.783 L 111.35 42.168 L 111.35 54.14 L 117.07 54.14 C 120.217 54.14 122.791 53.973 122.791 53.769 Z"
        fill="#000000"
        stroke-width="12"/>
</svg>
